img/buildings1.svg

<svg width="32" height="32" viewBox="0 0 32 32" fill="none" xmlns="http://www.w3.org/2000/svg">
<path opacity="0.6" d="M13.4803 5.33331C13.3736 5.73331 13.3337 6.17331 13.3337 6.66665V10.6666H6.66699V7.99998C6.66699 6.53331 7.86699 5.33331 9.33366 5.33331H13.4803Z" fill="#191A23"/>
<path d="M13.3337 25.3334V10.6667H6.66699C4.00033 10.6667 2.66699 12 2.66699 14.6667V25.3334C2.66699 28 4.00033 29.3334 6.66699 29.3334H17.3337C14.667 29.3334 13.3337 28 13.3337 25.3334ZM9.00033 22.6667C9.00033 23.2134 8.54699 23.6667 8.00033 23.6667C7.45366 23.6667 7.00033 23.2134 7.00033 22.6667V17.3334C7.00033 16.7867 7.45366 16.3334 8.00033 16.3334C8.54699 16.3334 9.00033 16.7867 9.00033 17.3334V22.6667Z" fill="#191A23"/>
<path opacity="0.4" d="M18.6663 29.3334H17.333C14.6663 29.3334 13.333 28 13.333 25.3334V6.66669C13.333 4.00002 14.6663 2.66669 17.333 2.66669H25.333C27.9997 2.66669 29.333 4.00002 29.333 6.66669V25.3334C29.333 28 27.9997 29.3334 25.333 29.3334H23.9997" fill="#191A23"/>
<path d="M24.0003 24V29.3334H18.667V24C18.667 23.2667 19.267 22.6667 20.0003 22.6667H22.667C23.4003 22.6667 24.0003 23.2667 24.0003 24Z" fill="#191A23"/>
<path d="M18.667 18.3334C18.1203 18.3334 17.667 17.88 17.667 17.3334V10.6667C17.667 10.12 18.1203 9.66669 18.667 9.66669C19.2137 9.66669 19.667 10.12 19.667 10.6667V17.3334C19.667 17.88 19.2137 18.3334 18.667 18.3334Z" fill="#191A23"/>
<path d="M24 18.3334C23.4533 18.3334 23 17.88 23 17.3334V10.6667C23 10.12 23.4533 9.66669 24 9.66669C24.5467 9.66669 25 10.12 25 10.6667V17.3334C25 17.88 24.5467 18.3334 24 18.3334Z" fill="#191A23"/>
</svg>

<svg xmlns="http://www.w3.org/2000/svg" width="32" height="32" fill="none"><path fill="#191A23" d="M13.48 5.333c-.106.4-.146.84-.146 1.334v4H6.667V8c0-1.467 1.2-2.667 2.667-2.667z" opacity=".6"/><path fill="#191A23" d="M13.334 25.333V10.667H6.667q-4 0-4 4v10.666q0 4 4 4h10.667q-4 0-4-4M9 22.667c0 .546-.453 1-1 1s-1-.454-1-1v-5.334c0-.546.454-1 1-1 .547 0 1 .454 1 1z"/><path fill="#191A23" d="M18.666 29.333h-1.333q-4 0-4-4V6.667q0-4 4-4h8q4 0 4 4v18.666q0 4-4 4H24" opacity=".4"/><path fill="#191A23" d="M24 24v5.333h-5.333V24c0-.733.6-1.333 1.333-1.333h2.667c.733 0 1.333.6 1.333 1.333M18.667 18.333c-.547 0-1-.453-1-1v-6.666c0-.547.453-1 1-1s1 .453 1 1v6.666c0 .547-.453 1-1 1M24 18.333c-.547 0-1-.453-1-1v-6.666c0-.547.453-1 1-1s1 .453 1 1v6.666c0 .547-.453 1-1 1"/></svg>
